keyboard-f5.svg

<svg fill="currentColor" viewBox="0 0 24 24"><path d="M5 7h6v2H7v2h3v2H7v4H5zm8 0h6v2h-4v2h2a2 2 0 0 1 2 2v2c0 1.11-.89 2-2 2h-4v-2h4v-2h-4z"/></svg>

<svg  viewBox="0 0 24 24" fill="currentColor"><path  d="M5 7H11V9H7V11H10V13H7V17H5V7M13 7H19V9H15V11H17C18.11 11 19 11.9 19 13V15C19 16.11 18.11 17 17 17H13V15H17V13H13V7Z"/></svg>
